X: 1423
T: N`olsun Bu Kadar Âh ü Figan
C: Ali Bey (Enderûnî)
O: Turkey
F: http://compmusic.upf.edu/node/140
N: hicaz-zirgule--sarki--senginsemai--nolsun_bu--enderuni_ali_bey
N: makam= hicaz-zirgule
N: form= sarki
N: usul= senginsemai = 6/4
M: 6/4
L: 1/16
K: C _7/8B ^1/4f ^c ^g
Q: 1/4=57
%%MIDI tuningsystem comma53
A4 a4 a3g fefg a8  | z2ga =b2=c'2 b2ab a2g2 agfg f2e2  | 
w:  ARANAĞME  |   | 
z2e^f =g2a2 g2=f2 e2d2 cdef edcB  | \
w:   | 
A3a =g=fed c3B cBBA A8  | 
w:   | 
A4 a4 a3g fefg a8  | z2ga =b2=c'2 b2ab a2g2 agfg f2e2  | 
w:  ARANAĞME  |   | 
z2e^f =g2a2 g2=f2 e2d2 cdef edcB  | \
w:   | 
A3a =g=fed c3B cBBA A8  | 
w:   | 
e3d d3c c2BA e2dc c3d cdcB  | z2d4dc c3B cBBA A6B/A/B  | 
w:  N'ol *  sun  *  bu  *  *  ka *  *  dar   |  ah  *  *  ü  *  fi *  *  *  gan   | 
z2=GA B2c2 d3c c=BBc d3e c_7/8BA2  | \
w:  ah  *  *  *  *  *  gö *  *  *  nül   SAZ  | 
e3d d3c c2BA e2dc c3d cdcB  | 
w:  N'ol *  sun  *  bu  *  *  ka *  *  dar   | 
z2d4dc c3B cBBA A6B/A/B  | z2=GA B2c2 d3c c=BBc d3e dcd2  | 
w:  ah  *  *  ü  *  fi *  *  *  gan   |  ah  *  *  *  *  *  gö *  *  *  nül   SAZ  | 
e3=g =f3e d2a2 gfed c3d cdcB  | ABcd e2=fe eddc cBBA B2c2 B2A2  | 
w:  Et *  tin  *  be *  ni  *  *  *  rüs  |  vây_ *  *  *  *  *  *  ı  *  *  *  ci *  *  *  han   | 
z2d4dc c3B cBBA ABcd ede2  | e3=g =f3e d2a2 gfed c3d cdcB  | 
w:  ah  *  *  *  *  gö *  *  *  nül   SAZ  |  Et *  tin  *  be *  ni  *  *  *  rüs  | 
ABcd e2=fe eddc cBBA B2c2 B2A2  | \
w:  vây_ *  *  *  *  *  *  ı  *  *  *  ci *  *  *  han   | 
z2d4dc c3B cBBA A4 a4  | 
w:  ah  *  *  *  *  gö *  *  *  nül   SAZ  | 
A4 a4 a3g fefg a8  | z2ga =b2=c'2 b2ab a2g2 agfg f2e2  | 
w:  Bin  der de  *  dû *  *  *  çâr   |  et *  *  *  me *  *  de *  sin   | 
z2=b2 a2g2 gffe eddc d3e dcd2  | e3=g =f3e d2a2 gfed c3d cdcB  | 
w:  bâ *  *  şım  *  *  *  her  *  *  *  bâr    |  Et *  tin  *  be *  ni  *  *  *  rüs  | 
ABcd e2=fe eddc cBBA B2c2 B2A2  | \
w:  vây_ *  *  *  *  *  *  ı  *  *  *  ci *  *  *  han   | 
z2d4dc c3B cBBA ABcd ede2  | 
w:  ah  *  *  *  *  gö *  *  *  nül   SAZ  | 
e3=g =f3e d2a2 gfed c3d cdcB  | ABcd e2=fe eddc cBBA B2c2 B2A2  | 
w:  Et *  tin  *  be *  ni  *  *  *  rüs  |  vây_ *  *  *  *  *  *  ı  *  *  *  ci *  *  *  han   | 
z2d4dc c3B cBBA A4 |
w:  ah  *  *  *  *  gö *  *  *  nül    | 


